fs/video_clip_multiple_24_regular.svg

<svg viewBox="0 0 24 24" fill="none" xmlns="http://www.w3.org/2000/svg" height="1em" width="1em">
  <path d="M8 7.7518V13.249C8 13.8419 8.65544 14.2003 9.15462 13.8805L13.7729 10.9213C14.08 10.7246 14.0799 10.276 13.7729 10.0793L9.15461 7.1203C8.65542 6.80047 8 7.15894 8 7.7518ZM5.25 3C3.45507 3 2 4.45507 2 6.25V15.25C2 17.0449 3.45508 18.5 5.25 18.5H15.75C17.5449 18.5 19 17.0449 19 15.25V6.25C19 4.45507 17.5449 3 15.75 3H5.25ZM3.5 6.25C3.5 5.2835 4.2835 4.5 5.25 4.5H15.75C16.7165 4.5 17.5 5.2835 17.5 6.25V15.25C17.5 16.2165 16.7165 17 15.75 17H5.25C4.2835 17 3.5 16.2165 3.5 15.25V6.25ZM5.01074 19.5C5.58828 20.4021 6.59923 21 7.74983 21H16.2498C19.1493 21 21.4998 18.6495 21.4998 15.75V8.74999C21.4998 7.59938 20.9019 6.58843 19.9998 6.01089V15.75C19.9998 17.8211 18.3209 19.5 16.2498 19.5H5.01074Z" fill="#212121"/>
</svg>

<svg viewBox="0 0 24 24" fill="none" xmlns="http://www.w3.org/2000/svg" height="1em" width="1em">
  <path d="M8 7.752v5.497a.75.75 0 0 0 1.155.631l4.618-2.959a.5.5 0 0 0 0-.842L9.155 7.12A.75.75 0 0 0 8 7.752ZM5.25 3A3.25 3.25 0 0 0 2 6.25v9a3.25 3.25 0 0 0 3.25 3.25h10.5A3.25 3.25 0 0 0 19 15.25v-9A3.25 3.25 0 0 0 15.75 3H5.25ZM3.5 6.25c0-.966.784-1.75 1.75-1.75h10.5c.966 0 1.75.784 1.75 1.75v9A1.75 1.75 0 0 1 15.75 17H5.25a1.75 1.75 0 0 1-1.75-1.75v-9ZM5.01 19.5A3.247 3.247 0 0 0 7.75 21h8.5c2.9 0 5.25-2.35 5.25-5.25v-7A3.25 3.25 0 0 0 20 6.01v9.74a3.75 3.75 0 0 1-3.75 3.75H5.01Z" fill="#212121"/>
</svg>
